assets/azurefirewalls/original.svg

<svg height="18" viewBox="0 0 18 18" width="18" xmlns="http://www.w3.org/2000/svg" xmlns:xlink="http://www.w3.org/1999/xlink"><linearGradient id="a" gradientUnits="userSpaceOnUse" x1="9" x2="9" y1="14.14" y2="1.38"><stop offset="0" stop-color="#0078d4"/><stop offset=".82" stop-color="#5ea0ef"/></linearGradient><path d="m18 10.14a4.06 4.06 0 0 0 -3.51-3.89 5.1 5.1 0 0 0 -5.25-4.87 5.23 5.23 0 0 0 -5 3.41 4.82 4.82 0 0 0 -4.24 4.64 4.9 4.9 0 0 0 5.07 4.71h8.65a1.5 1.5 0 0 0 .22 0 4.1 4.1 0 0 0 4.06-4" fill="url(#a)"/><path d="m14.29 11.19a.42.42 0 0 0 -.42-.41h-9.74a.42.42 0 0 0 -.42.41v5a.42.42 0 0 0 .42.41h9.74a.42.42 0 0 0 .42-.41z" fill="#821010"/><path d="m4.3 11.36h2.87v1.27h-2.87z" fill="#e62323"/><path d="m7.6 11.36h2.87v1.27h-2.87z" fill="#ff7381"/><path d="m10.9 11.36h2.87v1.27h-2.87zm-6.6 1.7h1.19v1.27h-1.19z" fill="#e62323"/><path d="m12.58 13.06h1.19v1.27h-1.19zm-6.66 0h2.87v1.27h-2.87z" fill="#ff7381"/><path d="m9.23 13.06h2.87v1.27h-2.87zm-4.93 1.7h2.87v1.27h-2.87z" fill="#e62323"/><path d="m7.6 14.76h2.87v1.27h-2.87z" fill="#ff7381"/><path d="m10.9 14.76h2.87v1.27h-2.87z" fill="#e62323"/></svg>

<svg xmlns="http://www.w3.org/2000/svg" id="af463d32-ec10-44d9-a607-ebad6378a52b" width="18" height="18" viewBox="0 0 18 18"><defs><linearGradient id="b012de7b-7a0e-4618-9fec-703622e3e8c3" x1="9" x2="9" y1="14.14" y2="1.38" gradientUnits="userSpaceOnUse"><stop offset="0" stop-color="#0078d4"/><stop offset=".82" stop-color="#5ea0ef"/></linearGradient></defs><title>Icon-networking-84</title><path fill="url(#b012de7b-7a0e-4618-9fec-703622e3e8c3)" d="M18 10.14a4.06 4.06 0 0 0-3.51-3.89 5.1 5.1 0 0 0-5.25-4.87 5.23 5.23 0 0 0-5 3.41A4.82 4.82 0 0 0 0 9.43a4.9 4.9 0 0 0 5.07 4.71h8.65a1.5 1.5 0 0 0 .22 0 4.1 4.1 0 0 0 4.06-4"/><path fill="#821010" d="M14.29 11.19a.42.42 0 0 0-.42-.41H4.13a.42.42 0 0 0-.42.41v5a.42.42 0 0 0 .42.41h9.74a.42.42 0 0 0 .42-.41z"/><path fill="#e62323" d="M4.3 11.36h2.87v1.27H4.3z"/><path fill="#ff7381" d="M7.6 11.36h2.87v1.27H7.6z"/><path fill="#e62323" d="M10.9 11.36h2.87v1.27H10.9zM4.3 13.06h1.19v1.27H4.3z"/><path fill="#ff7381" d="M12.58 13.06h1.19v1.27h-1.19zM5.92 13.06h2.87v1.27H5.92z"/><path fill="#e62323" d="M9.23 13.06h2.87v1.27H9.23zM4.3 14.76h2.87v1.27H4.3z"/><path fill="#ff7381" d="M7.6 14.76h2.87v1.27H7.6z"/><path fill="#e62323" d="M10.9 14.76h2.87v1.27H10.9z"/></svg>
